X:8
T:Leaving Lochalish
R:march
C:Farquar Ewan Finlayson
B:Logan's Book 8
D:i. Kinnon & Betty Beaton, Cape Breton Fiddle,
Z:Paul Stewart Cranford (P.S.C.), <http://www.cranfordpub.com>
L:1/8
M:C|
Q:300
Z: Contributed 2016-04-30 02:15:07 by Bob Stock rcmstock@gmail.com
K:Amix
e>d|c<eA<B c2 d2|e<ca<f e>dc>A|c<ea<c e>d c2|B<dg>B d>cB<G|
c<eA<B c2 d2|e<ca<f e>dc>A|c<ea<c d>cB<G|A2 A2 A2:|
|:z g|a>gf>e f<ae>c|d>ef<d e>dc>A|c<ee<f e>d c2|B<dg>B d>cB<G|
[1a>gf>e f<ae>c|d>ef<d e>dc>A|c<ea<c d>cB<G|A2 A2 A2:|
[2c<eA<B c2 d2|e<ca<f e>dc>A|c<ea<c d>cB<G|A2 A2 A2||
|:e>d|c<eB>d c>Ae>c|f>ac<e d<B c>A|c<ea<c e>d c2|B<dg>B d>cB<G|
c<eB>d c>Ae>c|f>ac<e d<B c>A|c<ea<c d>cB<G|A2 A2 A2:|
|:f>g|a<fg>e f<ae>c|d>Bf>d e>dc>A|c<ee<f e>d c2|B<dg>B d>cB<G|
[1a<gf>e f>ae>c|d>Bf>d e>dc>A|c<ea<c d>cB<G|A2 A2 A2:|
[2c<eB>d c>Ae>c|f>ac<e d<B c>A|c<ea<c d>cB<G|A2 A2 A2|]
